img/agro-color.svg

<svg width="93" height="94" viewBox="0 0 93 94" fill="none" xmlns="http://www.w3.org/2000/svg">
<path d="M90.6212 0.881348H2.20916C0.989074 0.881348 0 1.87042 0 3.09051V91.5025C0 92.7226 0.989074 93.7117 2.20916 93.7117H90.6212C91.8412 93.7117 92.8303 92.7226 92.8303 91.5025V3.09051C92.8303 1.87042 91.8412 0.881348 90.6212 0.881348Z" fill="#89D240"/>
<path d="M93 88.0079V4.79739C93 0.555287 92.3474 0.881603 86.4737 0.881603C85.5829 0.829393 70.853 0.881603 69.9491 0.881603C53.1862 0.881603 40.2935 24.0892 39.0045 48.5857C37.7156 73.0822 61.9772 93.7119 69.9491 93.7119C70.853 93.7119 87.2144 93.6108 88.1053 93.5553C92.3474 93.5553 93 93.5553 93 88.0079Z" fill="#FBD719"/>
<path d="M11.6038 70.5043C12.2923 75.0923 13.9239 77.3863 15.4706 79.5302C16.3353 80.7278 17.9637 82.9826 20.6264 83.397C24.0951 83.9387 26.9504 80.9856 28.3633 79.5302C31.7799 75.9995 34.3153 70.0409 32.2302 66.6375C31.8908 66.0795 31.5678 65.5541 30.9412 65.3485C28.1969 64.4512 24.6499 71.4115 21.9153 70.5043C21.4357 70.3444 21.4226 70.0899 20.6264 69.2154C18.2378 66.595 14.2502 64.3859 12.8894 65.3485C12.2042 65.8347 11.1339 67.3978 11.6005 70.5043H11.6038Z" fill="#FBD719"/>
<path d="M13.1897 53.8656C13.7608 57.677 15.115 59.5794 16.4007 61.3578C17.1186 62.3531 18.4728 64.2229 20.6819 64.5688C23.5633 65.0191 25.9324 62.5685 27.1038 61.3578C29.9395 58.4275 32.0443 53.4773 30.3148 50.6514C30.0309 50.1881 29.7633 49.7508 29.2445 49.5811C26.9668 48.8338 24.0202 54.6162 21.7523 53.8624C21.3542 53.7286 21.3444 53.5197 20.6819 52.792C18.6979 50.6155 15.3858 48.7816 14.2601 49.5811C13.6923 49.9825 12.8014 51.2812 13.1897 53.8624V53.8656Z" fill="#FBD719"/>
<path d="M15.2096 37.3637C15.673 40.4637 16.776 42.0137 17.8234 43.4592C18.4075 44.2685 19.5072 45.7924 21.3085 46.073C23.6514 46.4385 25.58 44.4447 26.5328 43.4592C28.8399 41.0739 30.553 37.0471 29.1466 34.7499C28.9149 34.3746 28.6995 34.0157 28.2753 33.8786C26.4219 33.2717 24.0234 37.9739 22.1797 37.3637C21.8567 37.256 21.8469 37.083 21.3085 36.4924C19.6965 34.7205 17.0011 33.2292 16.0842 33.8786C15.6208 34.2049 14.8996 35.2622 15.2129 37.3637H15.2096Z" fill="#FBD719"/>
<path d="M30.8923 1.19824C31.0261 13.4253 31.199 25.6523 31.2708 37.8794C31.3034 43.43 26.6632 46.0634 23.2467 49.6692C24.131 49.8552 24.5879 50.113 24.862 49.9825C26.859 49.0198 28.5591 46.0732 30.8955 47.5677C33.2809 49.0916 32.364 52.2536 32.2628 54.7565C32.0213 60.7868 27.28 63.7758 23.4262 67.1206C24.2974 68.6999 24.9631 67.9266 25.5733 67.4893C27.5932 66.047 29.5903 63.133 32.0474 64.4382C34.8015 65.9001 33.617 69.4472 33.5811 72.1262C33.5322 75.6994 32.1486 78.9038 29.5642 81.3088C26.3532 84.2978 22.1862 86.5592 23.3511 92.1457C23.5078 92.8995 22.8878 93.8132 21.7946 93.7088C20.7373 93.6076 20.2968 92.6515 20.4469 91.9042C21.4911 86.6408 17.6537 84.461 14.5765 81.6057C13.082 80.2189 11.9203 78.2153 11.1959 76.2672C9.8286 72.5798 8.79744 67.8091 11.3329 65.1692C14.3774 62.0007 16.7139 67.6296 20.2283 68.2366C20.1957 65.7272 18.0289 65.2214 16.802 64.138C14.3187 61.9485 12.3478 59.4456 11.8877 56.1205C11.4895 53.2195 10.4029 49.6039 13.0363 47.6787C15.4641 45.9035 17.2817 49.6692 19.6768 50.1848C19.8334 49.8128 20.15 49.196 20.101 49.1634C13.1374 44.6211 11.9725 37.8598 12.475 30.1163C13.0983 20.4998 11.8942 10.8278 13.0852 1.20803H15.6272C15.7055 9.77708 15.8132 18.3429 15.8426 26.9119C15.8524 29.9793 16.009 32.7889 20.7112 32.8085V1.19824H23.2532V33.0826C27.9228 32.1199 27.9326 29.604 27.9522 26.9087C28.0174 18.3396 28.2002 9.77056 28.3372 1.19824H30.8792H30.8923ZM30.4942 66.7616C25.4395 68.6086 24.1604 72.9975 22.1274 77.0177C19.4168 71.912 16.567 68.651 13.578 67.2348C12.8764 74.6193 16.9162 81.9777 21.7979 82.1996C26.4544 82.415 30.7944 75.0925 30.4942 66.7616ZM14.7625 50.1195C14.57 56.9558 17.918 62.8197 21.837 62.9666C26.0791 63.1232 29.5968 56.9362 29.0029 50.312C24.7119 50.9581 24.3692 55.5918 21.713 58.1436C19.7845 54.9555 18.9687 51.4248 14.7625 50.1195ZM15.8361 34.6946C14.756 39.2597 16.6029 42.3728 20.2838 44.7516C22.7768 46.3636 24.2322 44.4351 25.7267 43.0907C28.3666 40.7151 28.954 37.8892 27.8902 34.3617C24.4247 35.9672 23.7199 38.8159 22.1666 41.1523C19.7649 38.9399 19.7062 35.1579 15.8361 34.6946Z" fill="black"/>
<path d="M66.4998 1.19824C56.1327 8.85687 47.4494 17.7783 43.3574 30.472C36.4004 52.048 43.4684 75.1447 61.4745 88.9543C62.7765 89.9529 64.0557 90.9873 65.5828 92.1947C61.1776 93.6337 58.7922 90.86 56.3154 88.7063C31.2446 66.8987 31.1696 28.0149 56.1131 5.71119C57.8426 4.16445 59.6439 2.69929 61.4125 1.19824C63.1093 1.19824 64.8029 1.19824 66.4998 1.19824Z" fill="black"/>
<path d="M89.5508 13.2688C90.7451 13.2851 92.6671 12.7043 92.6932 14.3261C92.7389 17.3053 89.9555 16.1926 88.3793 16.4438C74.8079 18.5943 64.8063 28.1553 62.3067 41.5538C59.8952 54.4694 65.8831 67.4437 77.2455 73.9994C80.9752 76.1498 84.9889 77.2952 89.2376 77.9087C90.5983 78.1045 93.3818 77.2691 92.8499 80.0069C92.4061 82.2813 89.975 81.2502 88.5294 81.0185C75.082 78.8746 65.5144 71.5423 60.7893 58.7442C55.9338 45.5969 58.8608 33.6962 68.3109 23.5118C73.9888 17.3934 81.1482 13.9443 89.5508 13.2655V13.2688Z" fill="black"/>
<path d="M92.5333 47.6037C92.5333 49.294 92.6475 50.9974 92.5071 52.6779C92.357 54.4596 93.4143 56.8776 91.5674 57.8664C89.6551 58.891 87.7234 57.4324 86.082 56.2185C79.4839 51.3368 80.0615 41.1851 87.1817 37.3346C90.4416 35.5692 93.0097 35.2886 92.5659 40.6304C92.3734 42.9374 92.5333 45.2804 92.5365 47.607L92.5333 47.6037Z" fill="black"/>
</svg>

<svg width="93" height="94" fill="none" xmlns="http://www.w3.org/2000/svg"><path d="M90.621.881H2.21C.99.881 0 1.871 0 3.091v88.412c0 1.22.99 2.209 2.21 2.209h88.41c1.22 0 2.21-.99 2.21-2.21V3.091c0-1.22-.99-2.21-2.21-2.21z" fill="#89D240"/><path d="M93 88.008V4.798C93 .554 92.347.881 86.474.881c-.891-.053-15.621 0-16.525 0-16.763 0-29.655 23.207-30.944 47.704-1.29 24.496 22.972 45.126 30.944 45.126.904 0 17.265-.101 18.156-.157 4.242 0 4.895 0 4.895-5.547zM11.604 70.504c.688 4.588 2.32 6.882 3.867 9.026.864 1.198 2.493 3.453 5.155 3.867 3.47.542 6.324-2.411 7.737-3.867 3.417-3.53 5.952-9.49 3.867-12.892-.34-.559-.662-1.084-1.289-1.29-2.744-.897-6.291 6.064-9.026 5.156-.48-.16-.492-.414-1.289-1.289-2.388-2.62-6.376-4.83-7.737-3.867-.685.487-1.755 2.05-1.288 5.156h.003zm1.586-16.638c.57 3.811 1.925 5.713 3.21 7.492.719.995 2.073 2.865 4.282 3.21 2.881.451 5.25-2 6.422-3.21 2.835-2.93 4.94-7.88 3.21-10.707-.283-.463-.55-.9-1.07-1.07-2.277-.747-5.224 5.035-7.492 4.281-.398-.133-.408-.342-1.07-1.07-1.984-2.177-5.296-4.01-6.422-3.21-.568.4-1.459 1.7-1.07 4.28v.004zm2.02-16.502c.463 3.1 1.566 4.65 2.613 6.095.584.81 1.684 2.333 3.485 2.614 2.343.365 4.272-1.628 5.225-2.614 2.307-2.385 4.02-6.412 2.614-8.71-.232-.374-.447-.733-.872-.87-1.853-.607-4.252 4.095-6.095 3.485-.323-.108-.333-.281-.872-.872-1.611-1.771-4.307-3.263-5.224-2.613-.463.326-1.184 1.383-.871 3.485h-.003z" fill="#FBD719"/><path d="M30.892 1.198c.134 12.227.307 24.454.379 36.681.032 5.551-4.608 8.184-8.024 11.79.884.186 1.34.444 1.615.314 1.997-.963 3.697-3.91 6.034-2.415 2.385 1.524 1.468 4.686 1.367 7.189-.242 6.03-4.983 9.019-8.837 12.364.871 1.579 1.537.806 2.147.368 2.02-1.442 4.017-4.356 6.474-3.05 2.755 1.461 1.57 5.008 1.534 7.687-.049 3.573-1.432 6.778-4.017 9.183-3.21 2.989-7.378 5.25-6.213 10.837.157.754-.463 1.667-1.556 1.563-1.058-.101-1.498-1.058-1.348-1.805 1.044-5.263-2.793-7.443-5.87-10.298-1.495-1.387-2.657-3.39-3.381-5.339-1.367-3.687-2.399-8.458.137-11.098 3.044-3.168 5.38 2.46 8.895 3.068-.032-2.51-2.2-3.016-3.426-4.099-2.483-2.19-4.454-4.692-4.914-8.018-.399-2.9-1.485-6.516 1.148-8.441 2.428-1.776 4.246 1.99 6.64 2.506.157-.372.474-.989.425-1.022-6.964-4.542-8.128-11.303-7.626-19.047.623-9.616-.58-19.288.61-28.908h2.542c.079 8.57.186 17.135.216 25.704.01 3.067.166 5.877 4.868 5.897V1.199h2.542v31.884c4.67-.963 4.68-3.479 4.7-6.174.064-8.57.247-17.138.384-25.71h2.555zm-.398 65.564c-5.055 1.847-6.334 6.236-8.367 10.256-2.71-5.106-5.56-8.367-8.549-9.783-.702 7.384 3.338 14.743 8.22 14.965 4.656.215 8.996-7.108 8.696-15.438zM14.762 50.12c-.192 6.836 3.156 12.7 7.075 12.847 4.242.156 7.76-6.03 7.166-12.655-4.291.646-4.634 5.28-7.29 7.832-1.928-3.188-2.744-6.72-6.95-8.024zm1.074-15.425c-1.08 4.565.767 7.678 4.448 10.057 2.493 1.612 3.948-.317 5.443-1.661 2.64-2.376 3.227-5.202 2.163-8.73-3.465 1.606-4.17 4.455-5.723 6.791-2.402-2.212-2.46-5.994-6.33-6.457z" fill="#000"/><path d="M66.5 1.198c-10.367 7.659-19.05 16.58-23.143 29.274-6.957 21.576.111 44.673 18.117 58.482 1.303.999 2.582 2.033 4.109 3.24-4.405 1.44-6.79-1.334-9.268-3.488C31.245 66.9 31.17 28.015 56.113 5.711c1.73-1.547 3.53-3.012 5.3-4.513H66.5z" fill="#000"/><path d="M89.55 13.269c1.195.016 3.117-.565 3.143 1.057.046 2.98-2.737 1.867-4.314 2.118-13.571 2.15-23.573 11.711-26.072 25.11a30.877 30.877 0 0014.939 32.445c3.73 2.15 7.743 3.296 11.992 3.91 1.36.195 4.144-.64 3.612 2.098-.444 2.274-2.875 1.243-4.32 1.011-13.448-2.143-23.016-9.476-27.74-22.274-4.856-13.147-1.93-25.048 7.52-35.232 5.679-6.119 12.838-9.568 21.24-10.247v.004z" fill="#000"/><path d="M92.533 47.604c0 1.69.114 3.393-.026 5.074-.15 1.782.907 4.2-.94 5.188-1.912 1.025-3.844-.434-5.485-1.648-6.598-4.881-6.02-15.033 1.1-18.883 3.26-1.766 5.828-2.046 5.384 3.295-.193 2.307-.033 4.65-.03 6.977l-.003-.003z" fill="#000"/></svg>
